dist/assets/img/feedback/vk.svg

<svg width="27" height="27" viewBox="0 0 27 27" fill="none" xmlns="http://www.w3.org/2000/svg">
<rect width="27" height="27" rx="13.5" fill="#5B80B8"/>
<path fill-rule="evenodd" clip-rule="evenodd" d="M13.7952 16.9422C13.7952 16.9422 14.0458 16.9178 14.1742 16.7969C14.2917 16.6862 14.2876 16.4773 14.2876 16.4773C14.2876 16.4773 14.272 15.5017 14.7888 15.3577C15.2982 15.216 15.9522 16.3011 16.6463 16.7184C17.1706 17.0338 17.5686 16.9648 17.5686 16.9648L19.4233 16.9422C19.4233 16.9422 20.3932 16.8898 19.9334 16.2213C19.8954 16.1666 19.6651 15.7267 18.5547 14.8232C17.3913 13.8773 17.5475 14.0303 18.9479 12.394C19.801 11.3976 20.1419 10.7893 20.0353 10.5292C19.9341 10.2804 19.3065 10.3465 19.3065 10.3465L17.2188 10.3578C17.2188 10.3578 17.064 10.3393 16.9492 10.3994C16.8371 10.4584 16.7645 10.5959 16.7645 10.5959C16.7645 10.5959 16.4344 11.3667 15.9936 12.0226C15.0639 13.4059 14.6924 13.4791 14.5402 13.3934C14.1864 13.1928 14.2747 12.5887 14.2747 12.1595C14.2747 10.8185 14.507 10.2596 13.8231 10.1149C13.5962 10.0667 13.4292 10.0352 12.8485 10.0298C12.1035 10.0233 11.4732 10.0322 11.116 10.1852C10.8783 10.2869 10.6949 10.5143 10.807 10.5274C10.9448 10.5435 11.2572 10.6012 11.4229 10.7988C11.6369 11.0542 11.6294 11.6268 11.6294 11.6268C11.6294 11.6268 11.7523 13.2053 11.3421 13.4012C11.061 13.5357 10.6752 13.2613 9.84596 12.006C9.42149 11.3631 9.10093 10.6524 9.10093 10.6524C9.10093 10.6524 9.03913 10.5197 8.92843 10.4483C8.79463 10.3619 8.60787 10.3352 8.60787 10.3352L6.62407 10.3465C6.62407 10.3465 6.32592 10.3536 6.21658 10.4673C6.11946 10.5679 6.20911 10.7768 6.20911 10.7768C6.20911 10.7768 7.76232 13.9619 9.52132 15.5672C11.1343 17.0386 12.9653 16.9422 12.9653 16.9422H13.7952Z" fill="white"/>
</svg>

<svg width="27" height="27" viewBox="0 0 27 27" fill="none" xmlns="http://www.w3.org/2000/svg"><rect width="27" height="27" rx="13.5" fill="#5B80B8"/><path fill-rule="evenodd" clip-rule="evenodd" d="M13.795 16.942s.25-.024.38-.145c.117-.11.113-.32.113-.32s-.016-.975.5-1.12c.51-.141 1.164.944 1.858 1.361.525.316.923.247.923.247l1.854-.023s.97-.052.51-.72c-.038-.055-.268-.495-1.378-1.399-1.164-.946-1.008-.793.393-2.429.853-.996 1.194-1.605 1.087-1.865-.1-.249-.729-.182-.729-.182l-2.087.01s-.155-.018-.27.042c-.112.06-.184.197-.184.197s-.33.77-.771 1.427c-.93 1.383-1.302 1.456-1.454 1.37-.354-.2-.265-.804-.265-1.234 0-1.34.232-1.9-.452-2.044-.227-.048-.394-.08-.975-.085-.745-.007-1.375.002-1.732.155-.238.102-.421.33-.309.342.138.017.45.074.616.272.214.255.206.828.206.828s.123 1.578-.287 1.774c-.281.135-.667-.14-1.496-1.395-.425-.643-.745-1.354-.745-1.354s-.062-.132-.173-.204a.93.93 0 00-.32-.113l-1.984.011s-.298.008-.407.121c-.098.1-.008.31-.008.31s1.553 3.185 3.312 4.79c1.613 1.472 3.444 1.375 3.444 1.375h.83z" fill="#fff"/></svg>
